Papirus/24x24/actions/transform-skew-vertical.svg

<?xml version="1.0" encoding="UTF-8" standalone="no"?>
<svg
   xmlns:osb="http://www.openswatchbook.org/uri/2009/osb"
   xmlns:dc="http://purl.org/dc/elements/1.1/"
   xmlns:cc="http://creativecommons.org/ns#"
   xmlns:rdf="http://www.w3.org/1999/02/22-rdf-syntax-ns#"
   xmlns:svg="http://www.w3.org/2000/svg"
   xmlns="http://www.w3.org/2000/svg"
   xmlns:sodipodi="http://sodipodi.sourceforge.net/DTD/sodipodi-0.dtd"
   xmlns:inkscape="http://www.inkscape.org/namespaces/inkscape"
   width="24"
   height="24"
   viewBox="0 0 24 24"
   id="svg6394"
   version="1.1"
   inkscape:version="0.91 r13725"
   sodipodi:docname="transform-skew-vertical.svg">
  <sodipodi:namedview
     pagecolor="#ffffff"
     bordercolor="#666666"
     borderopacity="1"
     objecttolerance="10"
     gridtolerance="10"
     guidetolerance="10"
     inkscape:pageopacity="0"
     inkscape:pageshadow="2"
     inkscape:window-width="1600"
     inkscape:window-height="843"
     id="namedview16"
     showgrid="false"
     inkscape:zoom="9.8333333"
     inkscape:cx="-4.3220339"
     inkscape:cy="12"
     inkscape:window-x="0"
     inkscape:window-y="0"
     inkscape:window-maximized="1"
     inkscape:current-layer="svg6394" />
  <defs
     id="defs6396">
    <linearGradient
       id="linearGradient19282"
       osb:paint="solid"
       gradientTransform="matrix(-0.40801424,2.7359005,1.4465395,0.18903615,2588.4859,828.26016)">
      <stop
         style="stop-color:#ffffff;stop-opacity:1;"
         offset="0"
         id="stop19284" />
    </linearGradient>
    <linearGradient
       id="linearGradient19282-3"
       osb:paint="solid"
       gradientTransform="matrix(-2.7359006,0.40801425,-0.18903616,-1.4465395,-804.26018,-2564.486)">
      <stop
         style="stop-color:#ffffff;stop-opacity:1;"
         offset="0"
         id="stop19284-6" />
    </linearGradient>
    <linearGradient
       gradientTransform="matrix(-2.73658,0.4081035,-0.1890831,-1.446856,-1254.4599,-3933.7766)"
       osb:paint="solid"
       id="linearGradient19282-36">
      <stop
         id="stop19284-7"
         offset="0"
         style="stop-color:#666666;stop-opacity:1;" />
    </linearGradient>
  </defs>
  <metadata
     id="metadata6399">
    <rdf:RDF>
      <cc:Work
         rdf:about="">
        <dc:format>
                    image/svg+xml
                </dc:format>
        <dc:type
           rdf:resource="http://purl.org/dc/dcmitype/StillImage" />
        <dc:title />
      </cc:Work>
    </rdf:RDF>
  </metadata>
  <g
     transform="matrix(0,-1,1,0,0,24)"
     id="g4689">
    <rect
       style="color:#000000;opacity:0.55131974;fill:none;stroke-width:1px"
       id="rect6423"
       width="23.926279"
       height="24"
       x="-23.963148"
       y="0"
       transform="scale(-1,1)" />
    <path
       style="opacity:1;fill:#5c616c;fill-opacity:1;fill-rule:evenodd"
       d="M 3,0 0,2.5 3,5 3,3 6,3 6,2 3,2 3,0 Z M 3,5 0.25390625,5 A 0.71624863,0.34803699 34.650572 0 0 0.12109375,5.4980469 L 9.7382812,18.5 a 0.71624863,0.34803699 34.650572 0 0 0.8691408,0.498047 l 13.138672,0 A 0.71624863,0.34803699 34.650572 0 0 23.878906,18.5 L 14.261719,5.4980469 A 0.71624863,0.34803699 34.650572 0 0 13.392578,5 L 3,5 Z m -1.5097656,0.9960938 12.1386716,0 8.88086,12.0078122 -12.136719,0 L 1.4902344,5.9960938 Z M 21,19 l 0,2 -3,0 0,1 3,0 0,2 3,-2.5 -3,-2.5 z"
       id="use6595" />
    <g
       transform="matrix(-1.0057681,0,0.75704142,1,743.51897,-240)"
       id="g6667">
      <path
         style="color:#000000;font-style:normal;font-variant:normal;font-weight:normal;font-stretch:normal;font-size:medium;line-height:normal;font-family:sans-serif;text-indent:0;text-align:start;text-decoration:none;text-decoration-line:none;text-decoration-style:solid;text-decoration-color:#000000;letter-spacing:normal;word-spacing:normal;text-transform:none;direction:ltr;block-progression:tb;writing-mode:lr-tb;baseline-shift:baseline;text-anchor:start;white-space:normal;clip-rule:nonzero;display:inline;overflow:visible;visibility:visible;opacity:0.3;isolation:auto;mix-blend-mode:normal;color-interpolation:sRGB;color-interpolation-filters:linearRGB;solid-color:#000000;solid-opacity:1;fill:#5c616c;fill-opacity:1;fill-rule:evenodd;stroke:none;stroke-width:0.99567062;stroke-linecap:round;stroke-linejoin:round;stroke-miterlimit:0;stroke-dasharray:none;stroke-dashoffset:0;stroke-opacity:1;color-rendering:auto;image-rendering:auto;shape-rendering:auto;text-rendering:auto;enable-background:accumulate"
         d="m 911.36362,246.0003 c -0.2751,-9e-5 -0.49428,0.22292 -0.48943,0.49798 l 0.19039,11.00421 c 0.005,0.27506 0.23156,0.49806 0.50666,0.49797 l 11.07422,0 c 0.2751,9e-5 0.49428,-0.22291 0.48943,-0.49797 l -0.19039,-11.00421 c -0.005,-0.27506 -0.23156,-0.49807 -0.50666,-0.49798 z"
         id="rect6669" />
    </g>
  </g>
</svg>

<?xml version="1.0" encoding="UTF-8" standalone="no"?>
<svg id="svg6394" xmlns:rdf="http://www.w3.org/1999/02/22-rdf-syntax-ns#" xmlns="http://www.w3.org/2000/svg" xmlns:osb="http://www.openswatchbook.org/uri/2009/osb" height="24" width="24" version="1.1" xmlns:cc="http://creativecommons.org/ns#" viewBox="0 0 24 24" xmlns:dc="http://purl.org/dc/elements/1.1/">
 <metadata id="metadata6399">
  <rdf:RDF>
   <cc:Work rdf:about="">
    <dc:format>image/svg+xml</dc:format>
    <dc:type rdf:resource="http://purl.org/dc/dcmitype/StillImage"/>
    <dc:title/>
   </cc:Work>
  </rdf:RDF>
 </metadata>
 <g id="g4689" transform="matrix(0,-1,1,0,0,24)">
  <rect id="rect6423" opacity="1" style="color:#000000" transform="scale(-1,1)" height="24" width="23.926" y="0" x="-23.963" stroke-width="1px" fill="none"/>
  <path id="use6595" opacity="1" d="m3 0-3 2.5 3 2.5v-2h3v-1h-3v-2zm0 5h-2.7461a0.71625 0.34804 34.651 0 0 -0.13281 0.498l9.6172 13.002a0.71625 0.34804 34.651 0 0 0.86914 0.49805h13.139a0.71625 0.34804 34.651 0 0 0.133 -0.498l-9.617-13.002a0.71625 0.34804 34.651 0 0 -0.869 -0.498h-10.393zm-1.5098 0.99609h12.139l8.8809 12.008h-12.137l-8.8828-12.008zm19.51 13.004v2h-3v1h3v2l3-2.5-3-2.5z" fill-rule="evenodd"/>
  <g id="g6667" transform="matrix(-1.0058 0 .75704 1 743.52 -240)">
   <path id="rect6669" opacity=".3" style="color-rendering:auto;text-decoration-color:#000000;color:#000000;isolation:auto;mix-blend-mode:normal;shape-rendering:auto;solid-color:#000000;block-progression:tb;text-decoration-line:none;text-decoration-style:solid;image-rendering:auto;white-space:normal;text-indent:0;text-transform:none" d="m911.36 246c-0.2751-0.00009-0.49428 0.22292-0.48943 0.49798l0.19039 11.004c0.005 0.27506 0.23156 0.49806 0.50666 0.49797h11.074c0.2751 0.00009 0.49428-0.22291 0.48943-0.49797l-0.19039-11.004c-0.005-0.27506-0.23156-0.49807-0.50666-0.49798z" fill-rule="evenodd"/>
  </g>
 </g>
</svg>
